X: 25778
T: Mascot, The
R: jig
M: 6/8
K: Gmajor
|:~d3 BAG|ABA GBd|ege edB|GAB Adc|
~B3 ABA|BGE GBd|edd gdB|1 cBA GAB:|2 cBA G2A||
Bdd dge|deg dBG|Bdd dge|edB A2 A|
Bdd dge|deg dBG|cde dBG|ABA G2 A|
Bdd dge|deg dBG|Bdd dge|edB A2 d|
~g3 gdd|edg edB|dge dBG|ABA GAB||

